flaticon/arrows/focus-1.svg

<svg xmlns="http://www.w3.org/2000/svg" width="32" height="32" viewBox="0 0 24 24">
    <path d="M16.488281 15.847656L20.832031 15.847656C21.082031 15.847656 21.28125 15.644531 21.28125 15.394531 21.28125 15.144531 21.082031 14.945312 20.832031 14.945312L15.394531 14.945312C15.335938 14.945312 15.277344 14.957031 15.222656 14.976562 15.113281 15.023438 15.023438 15.113281 14.976562 15.222656 14.957031 15.277344 14.945312 15.335938 14.945312 15.394531L14.945312 20.832031C14.945312 21.082031 15.144531 21.28125 15.394531 21.28125 15.648438 21.28125 15.847656 21.082031 15.847656 20.832031L15.847656 16.488281 23.226562 23.867188C23.316406 23.957031 23.429688 24 23.546875 24 23.664062 24 23.777344 23.957031 23.867188 23.867188 24.042969 23.691406 24.042969 23.402344 23.867188 23.226562zM7.511719 8.152344L3.167969 8.152344C2.917969 8.152344 2.714844 8.351562 2.714844 8.601562 2.714844 8.851562 2.917969 9.054688 3.167969 9.054688L8.601562 9.054688C8.664062 9.054688 8.722656 9.042969 8.777344 9.019531 8.886719 8.976562 8.976562 8.886719 9.019531 8.777344 9.042969 8.722656 9.054688 8.664062 9.054688 8.601562L9.054688 3.167969C9.054688 2.917969 8.855469 2.714844 8.601562 2.714844 8.351562 2.714844 8.152344 2.917969 8.152344 3.167969L8.152344 7.511719.773438.132812C.597656-.0429688.308594-.0429688.132812.132812-.0429688.308594-.0429688.597656.132812.773438zM8.777344 14.976562C8.722656 14.957031 8.664062 14.945312 8.605469 14.945312L3.167969 14.945312C2.917969 14.945312 2.71875 15.144531 2.71875 15.394531 2.71875 15.644531 2.917969 15.847656 3.167969 15.847656L7.511719 15.847656.132812 23.226562C-.0429688 23.402344-.0429688 23.691406.132812 23.867188.222656 23.957031.335938 24 .453125 24 .570312 24 .683594 23.957031.773438 23.867188L8.152344 16.488281 8.152344 20.832031C8.152344 21.082031 8.351562 21.28125 8.605469 21.28125 8.855469 21.28125 9.054688 21.082031 9.054688 20.832031L9.054688 15.394531C9.054688 15.335938 9.042969 15.277344 9.023438 15.222656 8.976562 15.113281 8.886719 15.023438 8.777344 14.976562zM15.222656 9.023438C15.277344 9.042969 15.335938 9.054688 15.394531 9.054688L20.832031 9.054688C21.082031 9.054688 21.28125 8.855469 21.28125 8.605469 21.28125 8.355469 21.082031 8.152344 20.832031 8.152344L16.488281 8.152344 23.867188.773438C24.042969.597656 24.042969.308594 23.867188.132812 23.691406-.0429688 23.402344-.0429688 23.226562.132812L15.847656 7.511719 15.847656 3.167969C15.847656 2.917969 15.648438 2.71875 15.394531 2.71875 15.144531 2.71875 14.945312 2.917969 14.945312 3.167969L14.945312 8.605469C14.945312 8.664062 14.957031 8.722656 14.976562 8.777344 15.023438 8.886719 15.113281 8.976562 15.222656 9.023438zM9.507812 14.492188L14.492188 14.492188 14.492188 9.507812 9.507812 9.507812zM10.414062 10.414062L13.585938 10.414062 13.585938 13.585938 10.414062 13.585938zM10.414062 10.414062"/>
</svg>

<svg xmlns="http://www.w3.org/2000/svg" width="32" height="32" viewBox="0 0 24 24">
    <path d="M16.488 15.848h4.344a.45.45 0 0 0 .45-.453c0-.25-.2-.45-.45-.45h-5.437a.515.515 0 0 0-.172.032.473.473 0 0 0-.246.246.515.515 0 0 0-.032.172v5.437c0 .25.2.45.45.45.253 0 .453-.2.453-.45v-4.344l7.379 7.38c.09.089.203.132.32.132a.455.455 0 0 0 .32-.773zm0 0M7.512 8.152H3.168a.45.45 0 1 0 0 .903h5.434a.441.441 0 0 0 .175-.035c.11-.043.2-.133.243-.243a.441.441 0 0 0 .035-.175V3.168a.451.451 0 1 0-.903 0v4.344L.773.132a.455.455 0 0 0-.64 0 .455.455 0 0 0 0 .641zm0 0M8.777 14.977a.515.515 0 0 0-.172-.032H3.168c-.25 0-.45.2-.45.45s.2.453.45.453h4.344l-7.38 7.379A.455.455 0 0 0 .454 24c.117 0 .23-.043.32-.133l7.38-7.379v4.344c0 .25.199.45.452.45.25 0 .45-.2.45-.45v-5.437a.515.515 0 0 0-.032-.172.473.473 0 0 0-.246-.246zm0 0M15.223 9.023c.054.02.113.032.172.032h5.437c.25 0 .45-.2.45-.45a.45.45 0 0 0-.45-.453h-4.344l7.38-7.379a.455.455 0 0 0 0-.64.455.455 0 0 0-.641 0l-7.38 7.379V3.168c0-.25-.199-.45-.452-.45-.25 0-.45.2-.45.45v5.437c0 .06.012.118.032.172.046.11.136.2.246.246zm0 0M9.508 14.492h4.984V9.508H9.508zm.906-4.078h3.172v3.172h-3.172zm0 0"/>
</svg>
